icons/money.svg

<?xml version="1.0" encoding="UTF-8" standalone="no"?>
<!-- Created with Inkscape (http://www.inkscape.org/) -->

<svg
   width="1500mm"
   height="1500mm"
   viewBox="0 0 1500 1500"
   version="1.1"
   id="svg5"
   xml:space="preserve"
   inkscape:export-filename="pleroma.svg"
   inkscape:export-xdpi="96"
   inkscape:export-ydpi="96"
   inkscape:version="1.2.1 (9c6d41e410, 2022-07-14)"
   sodipodi:docname="money.svg"
   xmlns:inkscape="http://www.inkscape.org/namespaces/inkscape"
   xmlns:sodipodi="http://sodipodi.sourceforge.net/DTD/sodipodi-0.dtd"
   xmlns="http://www.w3.org/2000/svg"
   xmlns:svg="http://www.w3.org/2000/svg"><sodipodi:namedview
     id="namedview7"
     pagecolor="#393939"
     bordercolor="#000000"
     borderopacity="0.24705882"
     inkscape:showpageshadow="2"
     inkscape:pageopacity="0"
     inkscape:pagecheckerboard="0"
     inkscape:deskcolor="#3c3c3c"
     inkscape:document-units="mm"
     showgrid="false"
     inkscape:zoom="0.125"
     inkscape:cx="2348"
     inkscape:cy="2712"
     inkscape:window-width="1920"
     inkscape:window-height="1009"
     inkscape:window-x="-8"
     inkscape:window-y="-8"
     inkscape:window-maximized="1"
     inkscape:current-layer="layer1" /><defs
     id="defs2" /><g
     inkscape:label="Layer 1"
     inkscape:groupmode="layer"
     id="layer1"><circle
       r="0"
       style="fill:none;stroke:#000000;stroke-width:110.653;stroke-miterlimit:4;stroke-dasharray:none;stroke-opacity:1"
       cy="1221.2555"
       cx="840.45007"
       id="path3713" /><path
       d="m 600,949.9999 h 300 v -75 H 799.99999 V 525 h -89.0625 l -115.62499,107.0312 60.15626,62.5001 c 18.75,-16.4064 30.46875,-25.0001 42.96874,-44.5314 h 1.56251 v 225 H 600 Z M 1000,750 c 0,142.1876 -85.9375,325.0001 -250,325.0001 -164.0625,0 -250.00001,-182.8125 -250.00001,-325.0001 0,-142.1876 85.93751,-325.0001 250.00001,-325.0001 164.0625,0 250,182.8125 250,325.0001 z m 400,199.9999 V 550.0001 c -110.1563,0 -200,-89.8438 -200,-200.0002 H 300 C 300,460.1563 210.15623,550.0001 99.99998,550.0001 V 949.9999 C 210.15623,949.9999 300,1039.8437 300,1150.0001 h 900 c 0,-110.1564 89.8437,-200.0002 200,-200.0002 z M 1500,300 v 900 c 0,27.3437 -22.6563,49.9999 -50,49.9999 H 49.99999 C 22.65623,1249.9999 0,1227.3437 0,1200 V 300 C 0,272.6563 22.65623,250.0001 49.99999,250.0001 H 1450 c 27.3437,0 50,22.6562 50,49.9999 z"
       id="path75745"
       style="fill:#ffffff;stroke-width:0.781249" /></g></svg>

<?xml version="1.0" encoding="UTF-8"?>
<!-- Created with Inkscape (http://www.inkscape.org/) -->
<svg id="svg5" width="1500mm" height="1500mm" version="1.1" viewBox="0 0 1500 1500" xml:space="preserve" xmlns="http://www.w3.org/2000/svg"><g id="layer1"><circle id="path3713" cx="840.45" cy="1221.3" r="0" fill="none" stroke="#000" stroke-width="110.65"/><path id="path75745" d="m600 950h300v-75h-100v-350h-89.062l-115.62 107.03 60.156 62.5c18.75-16.406 30.469-25 42.969-44.531h1.5625v225h-100zm400-200c0 142.19-85.938 325-250 325s-250-182.81-250-325 85.938-325 250-325 250 182.81 250 325zm400 200v-400c-110.16 0-200-89.844-200-200h-900c0 110.16-89.844 200-200 200v400c110.16 0 200 89.844 200 200h900c0-110.16 89.844-200 200-200zm100-650v900c0 27.344-22.656 50-50 50h-1400c-27.344 0-50-22.656-50-50v-900c0-27.344 22.656-50 50-50h1400c27.344 0 50 22.656 50 50z" fill="#fff" stroke-width=".78125"/></g></svg>
